X:1651
T:Drops of Brandy, The
O:england
R:slip jig
H:Also played in A or in D.
D:Stockton's Wing.
M:9/8
K:G
d2c BGB BGB|d2c BGB cBA|d2c BGB BGB|cBc A2B cBA:|
|:GBd gdB gdB|GBd gdB cBA|1 GBd gdB gdB|cBc A2B cBA:|2 GBd gba gdB|cBc A2B cBA||


